; generated by PrusaSlicer 2.9.0 on 2025-06-30 at 20:45:19 UTC


;
;

;
;

;
;

;
;

;
;
; 

; external perimeters extrusion width = 0.45mm
; perimeters extrusion width = 0.45mm
; infill extrusion width = 0.45mm
; solid infill extrusion width = 0.45mm
; top infill extrusion width = 0.42mm
; first layer extrusion width = 0.50mm

M73 P0 R52
M73 Q0 S58
M201 X4000 Y4000 Z200 E2500 ; sets maximum accelerations, mm/sec^2
M203 X300 Y300 Z40 E100 ; sets maximum feedrates, mm / sec
M204 P4000 R1200 T4000 ; sets acceleration (P, T) and retract acceleration (R), mm/sec^2
M205 X8.00 Y8.00 Z2.00 E10.00 ; sets the jerk limits, mm/sec
M205 S0 T0 ; sets the minimum extruding and travel feed rate, mm/sec

M486 S0
M486 ANewHoleGuide_for_upboardmount.STL
M486 S-1

;TYPE:Custom
M17 ; enable steppers
M862.1 P0.4 A0 F1 ; nozzle check
M862.3 P "MK4S" ; printer model check
M862.5 P2 ; g-code level check
M862.6 P"Input shaper" ; FW feature check
M115 U6.1.3+7898

M555 X84.1339 Y23.1705 W81.7322 H159.659

G90 ; use absolute coordinates
M83 ; extruder relative mode

M140 S60 ; set bed temp
M104 T0 S170 ; set extruder temp for bed leveling
M109 T0 R170 ; wait for temp

M84 E ; turn off E motor

G28 ; home all without mesh bed level

G1 X42 Y-4 Z5 F4800

M302 S160 ; lower cold extrusion limit to 160C


G1 E-2 F2400 ; retraction
M73 Q0 S57


M84 E ; turn off E motor

G29 P9 X10 Y-4 W32 H4

M106 S100

G0 Z40 F10000

M190 S60 ; wait for bed temp

M107

;
; MBL
;
M84 E ; turn off E motor
G29 P1 ; invalidate mbl & probe print area
G29 P1 X0 Y0 W50 H20 C ; probe near purge place
G29 P3.2 ; interpolate mbl probes
G29 P3.13 ; extrapolate mbl outside probe area
G29 A ; activate mbl

; prepare for purge
M104 S230
G0 X0 Y-4 Z15 F4800 ; move away and ready for the purge
M109 S230

G92 E0
M569 S0 E ; set spreadcycle mode for extruder

;
; Extrude purge line
;
G92 E0 ; reset extruder position
G1 E2 F2400 ; deretraction after the initial one before nozzle cleaning
G0 E7 X15 Z0.2 F500 ; purge
G0 X25 E4 F500 ; purge
G0 X35 E4 F650 ; purge
G0 X45 E4 F800 ; purge
G0 X48 Z0.05 F8000 ; wipe, move close to the bed
G0 X51 Z0.2 F8000 ; wipe, move quickly away from the bed

G92 E0
M221 S100 ; set flow to 100%
G21 ; set units to millimeters
G90 ; use absolute coordinates
M83 ; use relative distances for extrusion
M572 S0.036 ; Filament gcode

M142 S36 ; set heatbreak target temp
M107
;LAYER_CHANGE
;Z:0.2
;HEIGHT:0.2
G1 E-.7 F2100
G1 Z.8 F720
M486 S0
G1 X148.842 Y84.734 F18000
G1 Z.2 F720
G1 E.7 F1500
M204 P500
;TYPE:Perimeter
;WIDTH:0.499999
G1 F2400
G1 X148.446 Y85.022 E.01861
G1 X147.951 Y85.264 E.02094
G1 X147.423 Y85.417 E.02089
G1 X146.876 Y85.475 E.02091
G1 X146.327 Y85.437 E.02092
G1 X145.793 Y85.305 E.02091
G1 X145.29 Y85.082 E.02091
G1 X144.834 Y84.775 E.02089
G1 X144.437 Y84.393 E.02094
G1 X144.113 Y83.949 E.02089
G1 X143.872 Y83.455 E.02089
G1 X143.719 Y82.926 E.02093
G1 X143.661 Y82.379 E.02091
G1 X143.698 Y81.83 E.02091
G1 X143.831 Y81.296 E.02092
G1 X144.054 Y80.794 E.02088
G1 X144.361 Y80.337 E.02092
G1 X144.742 Y79.941 E.02089
G1 X145.187 Y79.617 E.02092
G1 X145.681 Y79.375 E.02091
G1 X146.209 Y79.222 E.02089
G1 X146.723 Y79.167 E.01965
G1 X147.297 Y79.201 E.02185
G1 X147.839 Y79.334 E.02121
G1 X148.342 Y79.557 E.02091
G1 X148.799 Y79.864 E.02092
G1 X149.195 Y80.246 E.02091
G1 X149.519 Y80.69 E.02089
G1 X149.761 Y81.184 E.02091
G1 X149.913 Y81.713 E.02092
G1 X149.971 Y82.26 E.02091
G1 X149.934 Y82.809 E.02091
G1 X149.802 Y83.343 E.02091
G1 X149.579 Y83.845 E.02088
G1 X149.272 Y84.302 E.02092
G1 X148.89 Y84.698 E.02091
M204 P4000
M204 T4000
G1 X148.89 Y84.698 F18000
G1 X148.548 Y84.384
M204 P500
;TYPE:External perimeter
G1 F2400
G3 X148.149 Y84.668 I-1.819 J-2.139 E.01864
G3 X146.328 Y84.975 I-1.352 J-2.461 E.07152
G3 X144.735 Y84.04 I.546 J-2.754 E.07153
G3 X144.116 Y82.339 I2.191 J-1.761 E.07004
G1 X144.161 Y81.831 E.01938
G3 X144.488 Y80.952 I3.198 J.691 E.03577
G3 X145.911 Y79.776 I2.401 J1.456 E.07149
G3 X148.183 Y79.991 I.897 J2.627 E.08939
G3 X149.36 Y81.415 I-1.455 J2.401 E.07155
G3 X149.346 Y83.262 I-2.658 J.904 E.07153
G3 X148.594 Y84.345 I-2.617 J-1.017 E.05058
M204 P4000
G1 X148.274 Y84.585 F18000
G1 E-.7 F2100
G1 X147.796 Y111.1 Z.663 F18000
G1 X147.725 Y115.026 Z.723
G1 X147.654 Y118.953 Z.766
G1 X147.513 Y126.807 Z.8
G1 X146.816 Y165.471
G1 Z.2 F720
G1 E.7 F1500
M204 P500
;TYPE:Perimeter
G1 F2400
G1 X146.327 Y165.437 E.01863
G1 X145.793 Y165.305 E.02091
G1 X145.29 Y165.082 E.02091
G1 X144.834 Y164.775 E.02089
G1 X144.437 Y164.393 E.02094
G1 X144.113 Y163.949 E.02089
G1 X143.872 Y163.455 E.02089
G1 X143.719 Y162.926 E.02093
G1 X143.661 Y162.379 E.02091
G1 X143.698 Y161.83 E.02091
G1 X143.831 Y161.296 E.02092
G1 X144.054 Y160.794 E.02088
G1 X144.361 Y160.337 E.02092
G1 X144.742 Y159.941 E.02089
G1 X145.187 Y159.617 E.02092
G1 X145.681 Y159.375 E.02091
G1 X146.209 Y159.222 E.02089
G1 X146.723 Y159.167 E.01965
G1 X147.297 Y159.201 E.02185
G1 X147.839 Y159.334 E.02121
G1 X148.342 Y159.557 E.02091
G1 X148.799 Y159.864 E.02092
G1 X149.195 Y160.246 E.02091
G1 X149.519 Y160.69 E.02089
G1 X149.761 Y161.184 E.02091
G1 X149.913 Y161.713 E.02092
G1 X149.971 Y162.26 E.02091
G1 X149.934 Y162.809 E.02091
G1 X149.802 Y163.343 E.02091
G1 X149.579 Y163.845 E.02088
G1 X149.272 Y164.302 E.02092
G1 X148.89 Y164.698 E.02091
G1 X148.446 Y165.022 E.02089
G1 X147.951 Y165.264 E.02094
G1 X147.423 Y165.417 E.02089
G1 X146.876 Y165.475 E.02091
M204 P4000
G1 X146.876 Y165.475 F18000
G1 X146.816 Y165.018
M204 P500
;TYPE:External perimeter
G1 F2400
G1 X146.328 Y164.975 E.01862
G3 X144.735 Y164.04 I.546 J-2.754 E.07153
G3 X144.116 Y162.3 I2.189 J-1.759 E.07152
G3 X144.761 Y160.569 I2.807 J.059 E.07154
G3 X146.367 Y159.657 I2.112 J1.85 E.07152
G3 X147.304 Y159.664 I.443 J3.485 E.03572
G1 X147.758 Y159.789 E.0179
G3 X149.164 Y160.987 I-1.016 J2.618 E.07154
G3 X149.472 Y162.808 I-2.461 J1.352 E.07152
G3 X148.536 Y164.401 I-2.755 J-.546 E.07155
G3 X146.876 Y165.018 I-1.76 J-2.192 E.06847
M204 P4000
G1 X146.477 Y164.987 F18000
G1 E-.7 F2100
G1 X129.804 Y144.365 Z.663 F18000
G1 X127.335 Y141.311 Z.723
G1 X124.866 Y138.257 Z.766
G1 X119.927 Y132.149 Z.8
G1 X95.927 Y102.463
G1 Z.2 F720
G1 E.7 F1500
M204 P500
;TYPE:Perimeter
G1 F2400
G1 X85.041 Y102.463 E.41374
G1 X85.041 Y28.078 E2.8271
G1 X164.959 Y28.078 E3.03739
G1 X164.959 Y50.149 E.83884
G1 X164.959 Y181.922 E5.0082
G1 X128.673 Y181.922 E1.3791
G1 X128.671 Y69.011 E4.29133
G1 X128.589 Y68.203 E.03087
G1 X128.367 Y67.412 E.03122
G1 X128.01 Y66.671 E.03126
G1 X127.53 Y66.004 E.03123
G1 X126.941 Y65.43 E.03126
G1 X126.262 Y64.967 E.03123
G1 X125.513 Y64.629 E.03123
G1 X124.716 Y64.426 E.03126
G1 X123.966 Y64.363 E.02861
G1 X100.634 Y64.363 E.88676
G1 X99.766 Y64.447 E.03314
G1 X98.975 Y64.67 E.03123
G1 X98.234 Y65.027 E.03126
G1 X97.567 Y65.507 E.03123
G1 X96.993 Y66.095 E.03123
G1 X96.53 Y66.775 E.03127
G1 X96.192 Y67.524 E.03123
G1 X95.99 Y68.321 E.03125
G1 X95.927 Y69.071 E.02861
G1 X95.927 Y102.403 E1.26683
M204 P4000
G1 X95.927 Y102.403 F18000
G1 X96.384 Y102.921
M204 P500
;TYPE:External perimeter
G1 F2400
G1 X84.584 Y102.921 E.44847
G1 X84.584 Y27.621 E2.86187
G1 X165.416 Y27.621 E3.07212
G1 X165.416 Y50.149 E.85621
G1 X165.416 Y182.379 E5.02557
G1 X128.216 Y182.379 E1.41383
M73 P1 R52
M73 Q1 S57
G1 X128.216 Y70.046 E4.26936
G2 X128.148 Y68.321 I-11.681 J-.402 E.06567
G1 X127.952 Y67.605 E.02821
G1 X127.635 Y66.933 E.02824
G1 X127.207 Y66.327 E.0282
G1 X126.679 Y65.804 E.02825
G1 X126.069 Y65.381 E.02821
G1 X125.394 Y65.071 E.02823
G1 X124.676 Y64.882 E.02822
G1 X123.966 Y64.821 E.02708
G1 X100.634 Y64.821 E.88676
G1 X99.885 Y64.889 E.02858
G1 X99.168 Y65.084 E.02824
G1 X98.497 Y65.401 E.0282
G1 X97.89 Y65.83 E.02825
G1 X97.368 Y66.357 E.02819
G1 X96.945 Y66.968 E.02824
G1 X96.634 Y67.642 E.02821
G1 X96.445 Y68.36 E.02822
G1 X96.384 Y69.071 E.02712
G1 X96.384 Y102.861 E1.28423
M204 P4000
G1 X95.988 Y102.92 F18000
G1 E-.7 F2100
G1 X114.078 Y83.529 Z.663 F18000
G1 X116.758 Y80.657 Z.723
M73 P1 R51
G1 X119.437 Y77.785 Z.766
G1 X124.795 Y72.042 Z.8
G1 X164.776 Y29.185
G1 Z.2 F720
G1 E.7 F1500
M204 P500
;TYPE:Solid infill
;WIDTH:0.500224
G1 F2400
G1 X164.057 Y28.466 E.03866
G1 X163.411 Y28.466 E.02456
G1 X164.571 Y29.626 E.06238
G1 X164.571 Y30.273 E.0246
G1 X162.764 Y28.466 E.09717
G1 X162.117 Y28.466 E.0246
G1 X164.571 Y30.919 E.13194
G1 X164.571 Y31.566 E.0246
G1 X161.471 Y28.466 E.1667
G1 X160.824 Y28.466 E.0246
G1 X164.571 Y32.213 E.2015
G1 X164.571 Y32.86 E.0246
G1 X160.177 Y28.466 E.23629
G1 X159.53 Y28.466 E.0246
G1 X164.571 Y33.506 E.27106
G1 X164.571 Y34.153 E.0246
G1 X158.884 Y28.466 E.30582
G1 X158.237 Y28.466 E.0246
G1 X164.571 Y34.8 E.34061
G1 X164.571 Y35.446 E.02456
G1 X157.59 Y28.466 E.37538
G1 X156.943 Y28.466 E.0246
G1 X164.571 Y36.093 E.41017
G1 X164.571 Y36.74 E.0246
G1 X156.297 Y28.466 E.44494
G1 X155.65 Y28.466 E.0246
G1 X164.571 Y37.387 E.47973
G1 X164.571 Y38.033 E.02456
G1 X155.003 Y28.466 E.5145
G1 X154.357 Y28.466 E.02456
G1 X164.571 Y38.68 E.54926
G1 X164.571 Y39.327 E.0246
G1 X153.71 Y28.466 E.58406
G1 X153.063 Y28.466 E.0246
G1 X164.571 Y39.974 E.61885
G1 X164.571 Y40.62 E.02456
G1 X152.416 Y28.466 E.65361
G1 X151.77 Y28.466 E.02456
G1 X164.571 Y41.267 E.68838
G1 X164.571 Y41.914 E.0246
G1 X151.123 Y28.466 E.72317
G1 X150.476 Y28.466 E.0246
G1 X164.571 Y42.56 E.75794
G1 X164.571 Y43.207 E.0246
G1 X149.829 Y28.466 E.79273
G1 X149.183 Y28.466 E.02456
G1 X164.571 Y43.854 E.8275
G1 X164.571 Y44.501 E.0246
G1 X148.536 Y28.466 E.86229
G1 X147.889 Y28.466 E.0246
G1 X164.571 Y45.147 E.89706
G1 X164.571 Y45.794 E.0246
G1 X147.243 Y28.466 E.93182
G1 X146.596 Y28.466 E.0246
G1 X164.571 Y46.441 E.96661
G1 X164.571 Y47.087 E.02456
G1 X145.949 Y28.466 E1.00138
G1 X145.302 Y28.466 E.0246
G1 X164.571 Y47.734 E1.03617
G1 X164.571 Y48.381 E.0246
G1 X144.656 Y28.466 E1.07094
G1 X144.009 Y28.466 E.0246
G1 X164.571 Y49.028 E1.10573
G1 X164.571 Y49.674 E.02456
G1 X143.362 Y28.466 E1.1405
G1 X142.716 Y28.466 E.02456
G1 X164.571 Y50.321 E1.17526
G1 X164.571 Y50.968 E.0246
G1 X142.069 Y28.466 E1.21006
G1 X141.422 Y28.466 E.0246
G1 X164.571 Y51.615 E1.24485
G1 X164.571 Y52.261 E.02456
G1 X140.775 Y28.466 E1.27961
G1 X140.129 Y28.466 E.02456
M73 Q1 S56
G1 X164.571 Y52.908 E1.31438
G1 X164.571 Y53.555 E.0246
G1 X139.482 Y28.466 E1.34917
G1 X138.835 Y28.466 E.0246
G1 X164.571 Y54.201 E1.38394
G1 X164.571 Y54.848 E.0246
G1 X138.188 Y28.466 E1.41873
G1 X137.542 Y28.466 E.02456
M73 P2 R51
G1 X164.571 Y55.495 E1.4535
G1 X164.571 Y56.142 E.0246
G1 X136.895 Y28.466 E1.48829
G1 X136.248 Y28.466 E.0246
G1 X164.571 Y56.788 E1.52306
G1 X164.571 Y57.435 E.0246
G1 X135.602 Y28.466 E1.55782
G1 X134.955 Y28.466 E.0246
G1 X164.571 Y58.082 E1.59261
G1 X164.571 Y58.729 E.0246
M73 Q2 S56
G1 X134.308 Y28.466 E1.62741
G1 X133.661 Y28.466 E.0246
G1 X164.571 Y59.375 E1.66217
G1 X164.571 Y60.022 E.0246
G1 X133.015 Y28.466 E1.69694
G1 X132.368 Y28.466 E.0246
G1 X164.571 Y60.669 E1.73173
G1 X164.571 Y61.315 E.02456
G1 X131.721 Y28.466 E1.7665
G1 X131.074 Y28.466 E.0246
G1 X164.571 Y61.962 E1.80129
G1 X164.571 Y62.609 E.0246
G1 X130.428 Y28.466 E1.83606
G1 X129.781 Y28.466 E.0246
G1 X164.571 Y63.256 E1.87085
G1 X164.571 Y63.902 E.02456
G1 X129.134 Y28.466 E1.90561
G1 X128.488 Y28.466 E.02456
G1 X164.571 Y64.549 E1.94038
G1 X164.571 Y65.196 E.0246
G1 X127.841 Y28.466 E1.97517
G1 X127.194 Y28.466 E.0246
G1 X164.571 Y65.843 E2.00996
G1 X164.571 Y66.489 E.02456
G1 X126.547 Y28.466 E2.04473
G1 X125.901 Y28.466 E.02456
G1 X164.571 Y67.136 E2.0795
G1 X164.571 Y67.783 E.0246
G1 X125.254 Y28.466 E2.11429
G1 X124.607 Y28.466 E.0246
G1 X164.571 Y68.429 E2.14906
G1 X164.571 Y69.076 E.0246
G1 X123.96 Y28.466 E2.18385
G1 X123.314 Y28.466 E.02456
G1 X164.571 Y69.723 E2.21861
G1 X164.571 Y70.37 E.0246
G1 X122.667 Y28.466 E2.25341
G1 X122.02 Y28.466 E.0246
G1 X164.571 Y71.016 E2.28817
G1 X164.571 Y71.663 E.0246
M73 P3 R51
G1 X121.374 Y28.466 E2.32294
G1 X120.727 Y28.466 E.0246
G1 X164.571 Y72.31 E2.35773
G1 X164.571 Y72.957 E.0246
G1 X120.08 Y28.466 E2.39252
G1 X119.433 Y28.466 E.0246
M73 P3 R50
G1 X164.571 Y73.603 E2.42729
G1 X164.571 Y74.25 E.0246
G1 X118.787 Y28.466 E2.46206
G1 X118.14 Y28.466 E.0246
M73 Q3 S56
G1 X164.571 Y74.897 E2.49685
G1 X164.571 Y75.543 E.02456
G1 X117.493 Y28.466 E2.53161
G1 X116.846 Y28.466 E.0246
G1 X164.571 Y76.19 E2.56641
G1 X164.571 Y76.837 E.0246
G1 X116.2 Y28.466 E2.60117
G1 X115.553 Y28.466 E.0246
G1 X164.571 Y77.484 E2.63596
G1 X164.571 Y78.13 E.02456
G1 X114.906 Y28.466 E2.67073
G1 X114.26 Y28.466 E.02456
G1 X164.571 Y78.777 E2.7055
G1 X164.571 Y79.424 E.0246
G1 X113.613 Y28.466 E2.74029
G1 X112.966 Y28.466 E.0246
G1 X164.571 Y80.07 E2.77506
G1 X164.571 Y80.717 E.0246
M73 Q3 S55
G1 X112.319 Y28.466 E2.80985
G1 X111.673 Y28.466 E.02456
G1 X164.571 Y81.364 E2.84461
G1 X164.571 Y82.011 E.0246
G1 X111.026 Y28.466 E2.87941
G1 X110.379 Y28.466 E.0246
M73 P4 R50
G1 X164.571 Y82.657 E2.91417
G1 X164.571 Y83.304 E.0246
G1 X109.733 Y28.466 E2.94894
G1 X109.086 Y28.466 E.0246
G1 X164.571 Y83.951 E2.98373
G1 X164.571 Y84.598 E.0246
G1 X108.439 Y28.466 E3.01852
G1 X107.792 Y28.466 E.0246
G1 X164.571 Y85.244 E3.05329
G1 X164.571 Y85.891 E.0246
G1 X107.146 Y28.466 E3.08805
G1 X106.499 Y28.466 E.0246
M73 Q4 S55
G1 X164.571 Y86.538 E3.12285
G1 X164.571 Y87.184 E.02456
G1 X105.852 Y28.466 E3.15761
G1 X105.205 Y28.466 E.0246
G1 X164.571 Y87.831 E3.19241
G1 X164.571 Y88.478 E.0246
G1 X104.559 Y28.466 E3.22717
G1 X103.912 Y28.466 E.0246
G1 X164.571 Y89.125 E3.26196
G1 X164.571 Y89.771 E.02456
G1 X103.265 Y28.466 E3.29673
G1 X102.619 Y28.466 E.02456
G1 X164.571 Y90.418 E3.3315
G1 X164.571 Y91.065 E.0246
G1 X101.972 Y28.466 E3.36629
G1 X101.325 Y28.466 E.0246
G1 X164.571 Y91.712 E3.40108
G1 X164.571 Y92.358 E.02456
M73 P5 R50
G1 X100.678 Y28.466 E3.43585
G1 X100.032 Y28.466 E.02456
M73 P5 R49
G1 X164.571 Y93.005 E3.47061
G1 X164.571 Y93.652 E.0246
G1 X99.385 Y28.466 E3.50541
G1 X98.738 Y28.466 E.0246
G1 X164.571 Y94.298 E3.54017
G1 X164.571 Y94.945 E.0246
G1 X98.091 Y28.466 E3.57496
G1 X97.445 Y28.466 E.02456
G1 X147.945 Y78.966 E2.71566
G1 X148.053 Y78.995 E.00425
M73 Q5 S55
G1 X148.611 Y79.261 E.02351
G3 X149.586 Y80.109 I-1.985 J3.266 E.04937
G3 X150.178 Y81.199 I-3.001 J2.334 E.04738
G1 X164.571 Y95.592 E.77399
G1 X164.571 Y96.239 E.0246
G1 X150.336 Y82.004 E.76549
G3 X150.334 Y82.649 I-2.23 J.318 E.02461
G1 X164.571 Y96.885 E.76557
G1 X164.571 Y97.532 E.0246
G1 X150.24 Y83.201 E.77066
G3 X150.08 Y83.688 I-2.156 J-.438 E.01954
G1 X164.571 Y98.179 E.77926
G1 X164.571 Y98.826 E.0246
G1 X149.868 Y84.123 E.79066
G1 X149.603 Y84.505 E.01768
G1 X164.571 Y99.472 E.80488
G1 X164.571 Y100.119 E.0246
G1 X149.295 Y84.843 E.82147
G3 X148.949 Y85.144 I-1.493 J-1.368 E.01748
G1 X164.571 Y100.766 E.84008
G1 X164.571 Y101.412 E.02456
G1 X148.561 Y85.402 E.86094
G1 X148.122 Y85.611 E.01849
M73 Q5 S54
G1 X164.571 Y102.059 E.88453
G1 X164.571 Y102.706 E.0246
G1 X147.626 Y85.761 E.91122
G3 X147.062 Y85.844 I-.597 J-2.107 E.02174
G1 X164.571 Y103.353 E.94155
G1 X164.571 Y103.999 E.02456
G1 X146.162 Y85.591 E.98993
M204 P4000
G1 E-.7 F2100
G1 X146.162 Y85.591 F18000
G1 X147.358 Y79.026 Z.316
G1 Z.2 F720
G1 E.7 F1500
M204 P500
G1 F2400
G1 X96.798 Y28.466 E2.71889
G1 X96.151 Y28.466 E.0246
G1 X146.486 Y78.801 E2.70679
G2 X145.934 Y78.895 I.077 J2.111 E.02135
G1 X95.505 Y28.466 E2.71184
G1 X94.858 Y28.466 E.0246
G1 X145.447 Y79.055 E2.72045
G1 X145.014 Y79.269 E.01837
M73 P6 R49
G1 X94.211 Y28.466 E2.73195
G1 X93.564 Y28.466 E.0246
G1 X144.632 Y79.534 E2.7462
G2 X144.293 Y79.842 I1.264 J1.731 E.01745
G1 X92.918 Y28.466 E2.76274
G1 X92.271 Y28.466 E.0246
G1 X143.992 Y80.187 E2.78132
G1 X143.732 Y80.573 E.0177
G1 X91.624 Y28.466 E2.8021
G1 X90.977 Y28.466 E.0246
G1 X143.526 Y81.014 E2.82582
G2 X143.375 Y81.51 I2.465 J1.022 E.01975
G1 X90.331 Y28.466 E2.85246
G1 X89.684 Y28.466 E.0246
G1 X125.425 Y64.207 E1.92199
G1 X124.843 Y64.051 E.02291
G1 X124.601 Y64.03 E.00924
G1 X89.037 Y28.466 E1.91247
G1 X88.391 Y28.466 E.02456
G1 X123.899 Y63.975 E1.90949
G1 X123.253 Y63.975 E.02456
G1 X87.744 Y28.466 E1.90951
G1 X87.097 Y28.466 E.0246
M73 Q6 S54
