; generated by PrusaSlicer 2.9.0 on 2025-06-25 at 23:20:32 UTC


;
;

;
;

;
;

;
;

;
;
; 

; external perimeters extrusion width = 0.45mm
; perimeters extrusion width = 0.45mm
; infill extrusion width = 0.45mm
; solid infill extrusion width = 0.45mm
; top infill extrusion width = 0.42mm
; support material extrusion width = 0.36mm
; first layer extrusion width = 0.50mm

; external perimeters extrusion width = 0.45mm
; perimeters extrusion width = 0.45mm
; infill extrusion width = 0.45mm
; solid infill extrusion width = 0.45mm
; top infill extrusion width = 0.42mm
; support material extrusion width = 0.36mm
; first layer extrusion width = 0.50mm

; external perimeters extrusion width = 0.45mm
; perimeters extrusion width = 0.45mm
; infill extrusion width = 0.45mm
; solid infill extrusion width = 0.45mm
; top infill extrusion width = 0.42mm
; support material extrusion width = 0.36mm
; first layer extrusion width = 0.50mm

M73 P0 R32
M73 Q0 S38
M201 X4000 Y4000 Z200 E2500 ; sets maximum accelerations, mm/sec^2
M203 X300 Y300 Z40 E100 ; sets maximum feedrates, mm / sec
M204 P4000 R1200 T4000 ; sets acceleration (P, T) and retract acceleration (R), mm/sec^2
M205 X8.00 Y8.00 Z2.00 E10.00 ; sets the jerk limits, mm/sec
M205 S0 T0 ; sets the minimum extruding and travel feed rate, mm/sec

M486 S0
M486 ARS232_to_TELEM_CASE_Top.STL
M486 S-1
M486 S1
M486 ARS232_to_TELEM_CASE_Bottom.STL
M486 S-1
M486 S2
M486 ACableRelief.STL
M486 S-1

;TYPE:Custom
M17 ; enable steppers
M862.1 P0.4 A0 F1 ; nozzle check
M862.3 P "MK4S" ; printer model check
M862.5 P2 ; g-code level check
M862.6 P"Input shaper" ; FW feature check
M115 U6.1.3+7898

M555 X73.6138 Y70.3357 W102.772 H65.3286

G90 ; use absolute coordinates
M83 ; extruder relative mode

M140 S60 ; set bed temp
M104 T0 S170 ; set extruder temp for bed leveling
M109 T0 R170 ; wait for temp

M84 E ; turn off E motor

G28 ; home all without mesh bed level

G1 X42 Y-4 Z5 F4800

M302 S160 ; lower cold extrusion limit to 160C


G1 E-2 F2400 ; retraction


M84 E ; turn off E motor

G29 P9 X10 Y-4 W32 H4

M106 S100

G0 Z40 F10000

M190 S60 ; wait for bed temp

M107

;
; MBL
;
M84 E ; turn off E motor
G29 P1 ; invalidate mbl & probe print area
G29 P1 X0 Y0 W50 H20 C ; probe near purge place
G29 P3.2 ; interpolate mbl probes
G29 P3.13 ; extrapolate mbl outside probe area
G29 A ; activate mbl

; prepare for purge
M104 S230
G0 X0 Y-4 Z15 F4800 ; move away and ready for the purge
M109 S230

G92 E0
M569 S0 E ; set spreadcycle mode for extruder

;
; Extrude purge line
;
G92 E0 ; reset extruder position
G1 E2 F2400 ; deretraction after the initial one before nozzle cleaning
G0 E7 X15 Z0.2 F500 ; purge
G0 X25 E4 F500 ; purge
G0 X35 E4 F650 ; purge
G0 X45 E4 F800 ; purge
G0 X48 Z0.05 F8000 ; wipe, move close to the bed
G0 X51 Z0.2 F8000 ; wipe, move quickly away from the bed

G92 E0
M221 S100 ; set flow to 100%
G21 ; set units to millimeters
G90 ; use absolute coordinates
M83 ; use relative distances for extrusion
M572 S0.036 ; Filament gcode

M142 S36 ; set heatbreak target temp
M107
;LAYER_CHANGE
;Z:0.2
;HEIGHT:0.2
G1 E-.7 F2100
G1 Z.8 F720
M486 S1
G1 X125.772 Y113.372 F18000
G1 Z.2 F720
G1 E.7 F1500
M204 P500
;TYPE:Support material
;WIDTH:0.5
G1 F2400
G3 X129.391 Y117.781 I-2.663 J5.877 E.22456
G1 X129.715 Y118.863 E.04293
G3 X128.98 Y121.958 I-11.899 J-1.193 E.12126
G3 X126.023 Y125.008 I-5.976 J-2.835 E.16437
G1 X120.521 Y127.642 E.23184
G1 X120.521 Y110.859 E.63786
G1 X125.71 Y113.343 E.21865
M204 P4000
M204 T4000
G1 X125.71 Y113.343 F18000
G1 X129.121 Y120.959
M204 P500
G1 F2400
G1 X129.121 Y118.313 E.10056
G2 X128.55 Y116.619 I-10.964 J2.754 E.06801
G1 X128.55 Y121.882 E.20003
G1 X127.978 Y122.823 E.04185
G1 X127.978 Y115.677 E.27159
G1 X127.407 Y114.992 E.03389
G1 X127.407 Y123.509 E.3237
G1 X126.836 Y123.996 E.02852
G1 X126.836 Y114.505 E.36072
G1 X126.264 Y114.113 E.02635
G1 X126.264 Y124.388 E.39051
G1 X125.693 Y124.71 E.02491
G1 X125.693 Y113.791 E.41499
G1 X125.122 Y113.517 E.02407
G1 X125.122 Y124.984 E.43582
G1 X124.55 Y125.257 E.02409
G1 X124.55 Y113.244 E.45657
G1 X123.979 Y112.97 E.02407
G1 X123.979 Y125.53 E.47736
G1 X123.408 Y125.804 E.02407
G1 X123.408 Y112.697 E.49815
G1 X122.836 Y112.423 E.02411
G1 X122.836 Y126.077 E.51894
G1 X122.265 Y126.351 E.02407
G1 X122.265 Y112.15 E.53973
G1 X121.694 Y111.876 E.02407
G1 X121.694 Y126.624 E.56052
G1 X121.122 Y126.898 E.02411
G1 X121.122 Y111.375 E.58997
M204 P4000
G1 E-.7 F2100
G1 X121.122 Y111.375 F18000
G1 X116.156 Y85.325 Z.663
G1 X115.489 Y81.825 Z.718
G1 Z.2 F720
G1 E.7 F1500
M204 P500
G1 F2400
G1 X116.751 Y82.317 E.05148
G1 X118.178 Y84.039 E.085
G3 X115.787 Y93.477 I-5.332 J3.671 E.41879
G1 X111.627 Y95.468 E.17528
G3 X110.489 Y94.604 I3.458 J-5.73 E.05441
G3 X110.279 Y93.914 I1.026 J-.691 E.02782
G1 X110.279 Y81.501 E.47177
G2 X109.702 Y80.642 I-.898 J-.021 E.04191
G1 X107.973 Y80.642 E.06571
G1 X109.451 Y78.935 E.08582
G1 X115.427 Y81.796 E.25181
M204 P4000
G1 X115.427 Y81.796 F18000
G1 X118.837 Y89.544
M204 P500
G1 F2400
G1 X118.837 Y86.862 E.10193
G2 X118.265 Y85.018 I-5.549 J.709 E.07375
G1 X118.265 Y90.425 E.2055
G3 X117.694 Y91.344 I-4.64 J-2.246 E.0412
G1 X117.694 Y84.099 E.27536
G1 X117.123 Y83.41 E.03401
G1 X117.123 Y92.015 E.32704
G1 X116.551 Y92.503 E.02858
G1 X116.551 Y82.72 E.37182
G2 X115.98 Y82.453 I-.994 J1.382 E.0241
G1 X115.98 Y92.884 E.39644
G1 X115.409 Y93.202 E.02484
M73 P0 R31
G1 X115.409 Y82.23 E.41701
G1 X114.837 Y81.969 E.0239
M73 P1 R31
G1 X114.837 Y93.475 E.4373
G1 X114.266 Y93.749 E.02407
G1 X114.266 Y81.696 E.45809
M73 Q0 S37
G1 X113.695 Y81.423 E.02405
G1 X113.695 Y94.022 E.47884
G1 X113.123 Y94.296 E.02411
G1 X113.123 Y81.149 E.49967
G1 X112.552 Y80.876 E.02405
G1 X112.552 Y94.569 E.52042
G1 X111.981 Y94.843 E.02407
G1 X111.981 Y80.602 E.54125
G1 X111.409 Y80.329 E.02409
G1 X111.409 Y94.807 E.55026
G3 X110.838 Y94.38 I.89 J-1.788 E.02724
G1 X110.838 Y80.055 E.54444
G1 X110.267 Y79.782 E.02405
M73 Q1 S37
G1 X110.267 Y80.496 E.02714
G2 X109.695 Y80.23 I-.637 J.621 E.02451
G1 X109.695 Y79.508 E.02744
G1 X109.556 Y79.442 E.00585
G1 X109.124 Y79.941 E.02508
G1 X109.124 Y80.436 E.01881
M204 P4000
G1 E-.7 F2100
G1 X109.124 Y80.436 F18000
G1 X95.421 Y80.642 Z.439
G1 Z.2 F720
G1 E.7 F1500
M204 P500
G1 F2400
G1 X93.69 Y80.642 E.06579
G2 X93.114 Y81.501 I.322 J.838 E.04189
G1 X93.114 Y93.914 E.47177
G3 X92.478 Y94.98 I-1.202 J.005 E.04958
G1 X91.766 Y95.468 E.03281
G1 X87.612 Y93.48 E.17503
G3 X87.606 Y81.968 I2.916 J-5.757 E.54037
G1 X93.941 Y78.935 E.26694
G1 X95.376 Y80.59 E.08325
M204 P4000
G1 X95.376 Y80.59 F18000
G1 X94.269 Y80.436
M204 P500
G1 F2400
G1 X94.269 Y79.941 E.01881
G1 X93.836 Y79.442 E.02511
G1 X93.697 Y79.508 E.00585
G1 X93.697 Y80.23 E.02744
G2 X93.126 Y80.496 I.066 J.888 E.02447
G1 X93.126 Y79.782 E.02714
G1 X92.555 Y80.055 E.02405
G1 X92.555 Y94.38 E.54444
G3 X91.983 Y94.807 I-1.461 J-1.36 E.02728
G1 X91.983 Y80.329 E.55026
G1 X91.412 Y80.602 E.02405
G1 X91.412 Y94.843 E.54125
G1 X90.841 Y94.569 E.02407
G1 X90.841 Y80.876 E.52042
G1 X90.269 Y81.149 E.02409
G1 X90.269 Y94.296 E.49967
G1 X89.698 Y94.022 E.02407
G1 X89.698 Y81.423 E.47884
G1 X89.127 Y81.696 E.02405
G1 X89.127 Y93.749 E.45809
G1 X88.555 Y93.475 E.02411
G1 X88.555 Y81.97 E.43726
G1 X87.984 Y82.243 E.02405
G1 X87.984 Y93.202 E.41651
G1 X87.413 Y92.885 E.02482
G1 X87.413 Y82.561 E.39238
G1 X86.841 Y82.942 E.02612
G1 X86.841 Y92.502 E.36334
G1 X86.27 Y92.016 E.0285
G1 X86.27 Y83.43 E.32632
G1 X85.699 Y84.101 E.03349
G1 X85.699 Y91.346 E.27536
G1 X85.127 Y90.427 E.04114
G1 X85.127 Y85.02 E.2055
G2 X84.556 Y86.861 I4.919 J2.536 E.07363
G1 X84.556 Y89.547 E.10208
M204 P4000
G1 E-.7 F2100
G1 X84.556 Y89.547 F18000
G1 X83.384 Y116.04 Z.663
G1 X83.211 Y119.963 Z.723
G1 X83.037 Y123.887 Z.766
G1 X82.871 Y127.642 Z.791
G1 Z.2 F720
G1 E.7 F1500
M204 P500
G1 F2400
G1 X77.369 Y125.008 E.23184
G3 X77.369 Y113.493 I2.916 J-5.758 E.54062
G1 X82.871 Y110.859 E.23184
G1 X82.871 Y127.573 E.63524
M204 P4000
G1 X82.871 Y127.573 F18000
G1 X82.27 Y127.126
M204 P500
G1 F2400
G1 X82.27 Y111.603 E.58997
G1 X81.699 Y111.876 E.02405
G1 X81.699 Y126.624 E.56052
G1 X81.128 Y126.351 E.02405
G1 X81.128 Y112.15 E.53973
G1 X80.556 Y112.423 E.02409
G1 X80.556 Y126.077 E.51894
G1 X79.985 Y125.804 E.02405
G1 X79.985 Y112.697 E.49815
G1 X79.414 Y112.97 E.02405
G1 X79.414 Y125.53 E.47736
G1 X78.842 Y125.257 E.02409
G1 X78.842 Y113.244 E.45657
G1 X78.271 Y113.517 E.02405
G1 X78.271 Y124.984 E.43582
G1 X77.7 Y124.71 E.02407
G1 X77.7 Y113.791 E.41499
G1 X77.128 Y114.113 E.02495
G1 X77.128 Y124.388 E.39051
G1 X76.557 Y123.996 E.02632
G1 X76.557 Y114.505 E.36072
G1 X75.986 Y114.992 E.02852
G1 X75.986 Y123.509 E.3237
G1 X75.414 Y122.823 E.03395
G1 X75.414 Y115.677 E.27159
G1 X74.843 Y116.619 E.04187
G1 X74.843 Y121.882 E.20003
G3 X74.272 Y119.874 I5.796 J-2.735 E.0797
G1 X74.272 Y117.542 E.08863
M204 P4000
G1 E-.7 F2100
G1 X74.272 Y117.542 F18000
G1 X92.804 Y98.573 Z.663
G1 X95.549 Y95.764 Z.723
G1 X98.293 Y92.955 Z.766
G1 X103.783 Y87.336 Z.8
G1 X108.757 Y82.245
G1 Z.2 F720
G1 E.7 F1500
M204 P500
;TYPE:Perimeter
;WIDTH:0.499999
G1 F2400
G1 X108.761 Y93.943 E.4446
G1 X108.861 Y94.641 E.0268
G1 X108.923 Y94.838 E.00785
G1 X109.189 Y95.382 E.02301
G1 X109.308 Y95.553 E.00792
G1 X109.851 Y96.096 E.02919
G1 X110.558 Y96.55 E.03193
G1 X111.095 Y97.009 E.02685
G1 X117.757 Y103.671 E.35808
G1 X118.205 Y104.195 E.0262
G1 X118.547 Y104.753 E.02487
G1 X118.797 Y105.358 E.02488
G1 X118.95 Y105.994 E.02486
G1 X119.004 Y106.867 E.03324
G1 X119.004 Y131.815 E.94818
G1 X118.957 Y132.358 E.02071
M73 P2 R31
G3 X118.322 Y133.718 I-3.065 J-.601 E.05761
G3 X117.093 Y134.579 I-2.353 J-2.053 E.0576
G1 X116.605 Y134.71 E.0192
G1 X116.062 Y134.757 E.02071
G1 X87.447 Y134.757 E1.08755
G1 X86.838 Y134.719 E.02319
G1 X86.185 Y134.525 E.02589
G1 X85.587 Y134.201 E.02585
G1 X85.093 Y133.732 E.02589
G1 X84.707 Y133.171 E.02588
G1 X84.48 Y132.529 E.02588
G1 X84.388 Y131.819 E.02721
G1 X84.388 Y106.682 E.95536
G1 X84.443 Y105.994 E.02623
G1 X84.595 Y105.358 E.02485
G1 X84.846 Y104.753 E.02489
G1 X85.188 Y104.195 E.02487
G1 X85.636 Y103.671 E.0262
G1 X92.297 Y97.009 E.35805
G1 X92.835 Y96.55 E.02688
G2 X93.667 Y95.992 I-9.382 J-14.872 E.03808
G1 X94.084 Y95.553 E.02301
G1 X94.203 Y95.382 E.00792
G1 X94.47 Y94.838 E.02303
G1 X94.532 Y94.641 E.00785
G1 X94.631 Y93.946 E.02668
G1 X94.631 Y82.159 E.44798
G1 X108.757 Y82.159 E.53688
G1 X108.757 Y82.185 E.00099
M204 P4000
G1 X108.757 Y82.185 F18000
G1 X109.213 Y81.73
M204 P500
;TYPE:External perimeter
G1 F2400
G1 X109.219 Y93.943 E.46417
G1 X109.333 Y94.637 E.02673
G1 X109.639 Y95.238 E.02563
G1 X110.099 Y95.712 E.0251
G1 X110.831 Y96.183 E.03308
G1 X111.406 Y96.673 E.02871
G1 X118.093 Y103.36 E.35942
G1 X118.576 Y103.926 E.02828
G1 X118.955 Y104.545 E.02759
G1 X119.233 Y105.216 E.0276
G1 X119.403 Y105.922 E.0276
G1 X119.461 Y106.867 E.03598
G1 X119.461 Y131.835 E.94894
G1 X119.409 Y132.437 E.02296
G1 X119.257 Y133.003 E.02227
G1 X119.01 Y133.533 E.02222
G1 X118.674 Y134.013 E.02227
G1 X118.26 Y134.427 E.02225
G1 X117.78 Y134.763 E.02227
G1 X117.25 Y135.01 E.02222
G1 X116.684 Y135.162 E.02227
G1 X116.082 Y135.214 E.02296
G1 X87.309 Y135.214 E1.09355
G3 X85.767 Y134.847 I.054 J-3.647 E.06073
G3 X84.299 Y133.379 I1.625 J-3.093 E.08011
G3 X83.931 Y131.837 I3.279 J-1.596 E.06074
G1 X83.931 Y106.664 E.95673
G1 X83.99 Y105.922 E.02829
G1 X84.159 Y105.216 E.02759
G1 X84.437 Y104.545 E.0276
G1 X84.817 Y103.926 E.02761
G1 X85.3 Y103.36 E.02828
G1 X91.987 Y96.673 E.35942
G1 X92.562 Y96.183 E.02871
M73 Q2 S37
G1 X93.336 Y95.677 E.03515
G1 X93.793 Y95.181 E.02563
G1 X94.08 Y94.571 E.02562
G1 X94.174 Y93.946 E.02402
G1 X94.174 Y81.702 E.46535
G1 X109.182 Y81.702 E.5704
M204 P4000
G1 X109.211 Y82.1 F18000
G1 X108.574 Y83.271
M204 P500
;TYPE:Solid infill
;WIDTH:0.502327
G1 F2400
G1 X107.851 Y82.547 E.03909
G1 X107.201 Y82.547 E.02483
G1 X108.369 Y83.715 E.0631
G1 X108.369 Y84.365 E.02483
G1 X106.551 Y82.547 E.09821
G1 X105.901 Y82.547 E.02483
G1 X108.369 Y85.015 E.13333
G1 X108.37 Y85.665 E.02483
G1 X105.252 Y82.547 E.16844
G1 X104.602 Y82.547 E.02483
G1 X108.37 Y86.315 E.20356
G1 X108.37 Y86.965 E.02483
G1 X103.952 Y82.547 E.23867
G1 X103.303 Y82.547 E.02479
G1 X108.37 Y87.615 E.27376
G1 X108.371 Y88.265 E.02483
G1 X102.653 Y82.547 E.3089
G1 X102.003 Y82.547 E.02483
G1 X108.371 Y88.915 E.34402
G1 X108.371 Y89.565 E.02483
G1 X101.354 Y82.547 E.3791
G1 X100.704 Y82.547 E.02483
G1 X108.372 Y90.215 E.41425
G1 X108.373 Y90.866 E.02487
G1 X100.054 Y82.547 E.44942
G1 X99.404 Y82.547 E.02483
G1 X108.373 Y91.516 E.48453
G1 X108.374 Y92.166 E.02483
G1 X98.755 Y82.547 E.51964
G1 X98.105 Y82.547 E.02483
G1 X108.374 Y92.817 E.55479
G1 X108.375 Y93.467 E.02483
G1 X97.455 Y82.547 E.58993
G1 X96.806 Y82.547 E.02479
G1 X108.391 Y94.133 E.62588
G2 X108.515 Y94.866 I7.262 J-.851 E.02841
G1 X108.543 Y94.934 E.00281
G1 X96.156 Y82.547 E.66918
G1 X95.506 Y82.547 E.02483
G1 X118.419 Y105.46 E1.23782
G1 X118.565 Y106.055 E.0234
G1 X118.582 Y106.273 E.00835
G1 X95.02 Y82.71 E1.27291
G1 X95.02 Y83.36 E.02483
G1 X118.616 Y106.956 E1.27472
G1 X118.616 Y107.606 E.02483
G1 X95.02 Y84.01 E1.27472
G1 X95.02 Y84.659 E.02479
G1 X118.616 Y108.255 E1.27472
G1 X118.616 Y108.905 E.02483
G1 X95.02 Y85.309 E1.27472
G1 X95.02 Y85.959 E.02483
G1 X118.616 Y109.555 E1.27472
G1 X118.616 Y110.204 E.02479
M73 P3 R31
G1 X95.02 Y86.608 E1.27472
G1 X95.02 Y87.258 E.02483
G1 X118.616 Y110.854 E1.27472
G1 X118.616 Y111.504 E.02483
G1 X95.02 Y87.908 E1.27472
G1 X95.02 Y88.558 E.02483
G1 X118.616 Y112.154 E1.27472
G1 X118.616 Y112.803 E.02479
G1 X95.02 Y89.207 E1.27472
G1 X95.02 Y89.857 E.02483
G1 X118.616 Y113.453 E1.27472
G1 X118.616 Y114.103 E.02483
G1 X95.02 Y90.507 E1.27472
G1 X95.02 Y91.156 E.02479
G1 X118.616 Y114.752 E1.27472
G1 X118.616 Y115.402 E.02483
G1 X95.02 Y91.806 E1.27472
G1 X95.02 Y92.456 E.02483
G1 X118.616 Y116.052 E1.27472
G1 X118.616 Y116.701 E.02479
G1 X95.02 Y93.105 E1.27472
G1 X95.02 Y93.755 E.02483
M73 Q3 S37
G1 X118.616 Y117.351 E1.27472
G1 X118.616 Y118.001 E.02483
G1 X94.969 Y94.354 E1.27748
G3 X94.863 Y94.897 I-3.06 J-.319 E.02116
G1 X118.616 Y118.651 E1.28323
G1 X118.616 Y119.3 E.02479
G1 X94.656 Y95.34 E1.29438
G3 X94.458 Y95.712 I-2.714 J-1.208 E.01611
G1 X94.419 Y95.753 E.00216
G1 X118.616 Y119.95 E1.30719
G1 X118.616 Y120.6 E.02483
G1 X94.106 Y96.089 E1.32412
G3 X93.774 Y96.408 I-1.544 J-1.276 E.01763
G1 X118.616 Y121.249 E1.34201
G1 X118.616 Y121.899 E.02483
G1 X93.379 Y96.662 E1.36337
G2 X92.993 Y96.926 I1.485 J2.584 E.01788
G1 X118.616 Y122.549 E1.38422
G1 X118.616 Y123.198 E.02479
G1 X92.643 Y97.225 E1.40313
G1 X92.312 Y97.544 E.01756
M73 P4 R31
G1 X118.616 Y123.848 E1.42101
G1 X118.616 Y124.498 E.02483
M73 P4 R30
G1 X91.987 Y97.869 E1.43857
G1 X91.662 Y98.194 E.01756
M73 Q3 S36
G1 X118.616 Y125.148 E1.45613
G1 X118.616 Y125.797 E.02479
G1 X91.337 Y98.519 E1.47366
G1 X91.012 Y98.844 E.01756
G1 X118.616 Y126.447 E1.49122
G1 X118.616 Y127.097 E.02483
G1 X90.687 Y99.168 E1.5088
G1 X90.363 Y99.493 E.01753
G1 X118.616 Y127.746 E1.5263
G1 X118.616 Y128.396 E.02483
G1 X90.038 Y99.818 E1.54386
G1 X89.713 Y100.143 E.01756
G1 X118.616 Y129.046 E1.56142
G1 X118.616 Y129.695 E.02479
G1 X89.388 Y100.468 E1.57895
G1 X89.063 Y100.793 E.01756
G1 X118.616 Y130.345 E1.59651
G1 X118.616 Y130.995 E.02483
G1 X88.738 Y101.117 E1.61409
G1 X88.413 Y101.442 E.01756
G1 X118.616 Y131.645 E1.63165
G3 X118.576 Y132.254 I-5.298 J-.041 E.02333
M73 Q4 S36
G1 X88.089 Y101.767 E1.64699
G1 X87.764 Y102.092 E.01756
G1 X118.436 Y132.764 E1.65699
G3 X118.216 Y133.193 I-2.17 J-.84 E.01845
G1 X87.439 Y102.417 E1.66263
G1 X87.114 Y102.742 E.01756
G1 X117.932 Y133.559 E1.66485
G3 X117.588 Y133.865 I-1.32 J-1.137 E.01764
G1 X86.789 Y103.067 E1.66382
G1 X86.464 Y103.391 E.01753
M73 P5 R30
G1 X117.182 Y134.109 E1.65947
G3 X116.704 Y134.281 I-.834 J-1.565 E.01947
G1 X86.14 Y103.716 E1.65118
G1 X85.823 Y104.049 E.01756
G1 X116.134 Y134.361 E1.63751
G1 X115.493 Y134.369 E.02449
G1 X85.524 Y104.4 E1.61901
G1 X85.273 Y104.799 E.01801
G1 X114.843 Y134.369 E1.59745
G1 X114.193 Y134.369 E.02483
