; generated by PrusaSlicer 2.9.0 on 2025-06-25 at 16:12:53 UTC


;
;

;
;

;
;

;
;

;
;
; 

; external perimeters extrusion width = 0.45mm
; perimeters extrusion width = 0.45mm
; infill extrusion width = 0.45mm
; solid infill extrusion width = 0.45mm
; top infill extrusion width = 0.42mm
; support material extrusion width = 0.36mm
; first layer extrusion width = 0.50mm

; external perimeters extrusion width = 0.45mm
; perimeters extrusion width = 0.45mm
; infill extrusion width = 0.45mm
; solid infill extrusion width = 0.45mm
; top infill extrusion width = 0.42mm
; support material extrusion width = 0.36mm
; first layer extrusion width = 0.50mm

; external perimeters extrusion width = 0.45mm
; perimeters extrusion width = 0.45mm
; infill extrusion width = 0.45mm
; solid infill extrusion width = 0.45mm
; top infill extrusion width = 0.42mm
; support material extrusion width = 0.36mm
; first layer extrusion width = 0.50mm

M73 P0 R35
M73 Q0 S41
M201 X4000 Y4000 Z200 E2500 ; sets maximum accelerations, mm/sec^2
M203 X300 Y300 Z40 E100 ; sets maximum feedrates, mm / sec
M204 P4000 R1200 T4000 ; sets acceleration (P, T) and retract acceleration (R), mm/sec^2
M205 X8.00 Y8.00 Z2.00 E10.00 ; sets the jerk limits, mm/sec
M205 S0 T0 ; sets the minimum extruding and travel feed rate, mm/sec

M486 S0
M486 ACableRelief.STL
M486 S-1
M486 S1
M486 ARS232_to_TELEM_CASE_Bottom.STL
M486 S-1
M486 S2
M486 ARS232_to_TELEM_CASE_Top.STL
M486 S-1

;TYPE:Custom
M17 ; enable steppers
M862.1 P0.4 A0 F1 ; nozzle check
M862.3 P "MK4S" ; printer model check
M862.5 P2 ; g-code level check
M862.6 P"Input shaper" ; FW feature check
M115 U6.1.3+7898

M555 X62.4941 Y70.3349 W114.762 H65.3303

G90 ; use absolute coordinates
M83 ; extruder relative mode

M140 S60 ; set bed temp
M104 T0 S170 ; set extruder temp for bed leveling
M109 T0 R170 ; wait for temp

M84 E ; turn off E motor

G28 ; home all without mesh bed level

G1 X42 Y-4 Z5 F4800

M302 S160 ; lower cold extrusion limit to 160C


G1 E-2 F2400 ; retraction


M84 E ; turn off E motor

G29 P9 X10 Y-4 W32 H4

M106 S100

G0 Z40 F10000

M190 S60 ; wait for bed temp

M107

;
; MBL
;
M84 E ; turn off E motor
G29 P1 ; invalidate mbl & probe print area
G29 P1 X0 Y0 W50 H20 C ; probe near purge place
G29 P3.2 ; interpolate mbl probes
G29 P3.13 ; extrapolate mbl outside probe area
G29 A ; activate mbl

; prepare for purge
M104 S230
G0 X0 Y-4 Z15 F4800 ; move away and ready for the purge
M109 S230

G92 E0
M569 S0 E ; set spreadcycle mode for extruder

;
; Extrude purge line
;
G92 E0 ; reset extruder position
G1 E2 F2400 ; deretraction after the initial one before nozzle cleaning
G0 E7 X15 Z0.2 F500 ; purge
G0 X25 E4 F500 ; purge
G0 X35 E4 F650 ; purge
G0 X45 E4 F800 ; purge
G0 X48 Z0.05 F8000 ; wipe, move close to the bed
G0 X51 Z0.2 F8000 ; wipe, move quickly away from the bed

G92 E0
M221 S100 ; set flow to 100%
G21 ; set units to millimeters
G90 ; use absolute coordinates
M83 ; use relative distances for extrusion
M572 S0.036 ; Filament gcode

M142 S36 ; set heatbreak target temp
M107
;LAYER_CHANGE
;Z:0.2
;HEIGHT:0.2
G1 E-.7 F2100
G1 Z.8 F720
M486 S1
G1 X114.723 Y110.133 F18000
G1 Z.2 F720
G1 E.7 F1500
M204 P500
;TYPE:Support material
;WIDTH:0.5
G1 F2400
G3 X119.419 Y115.092 I-1.075 J5.721 E.27738
G3 X119.697 Y122.566 I-5.54 J3.948 E.30096
G3 X110.522 Y126.978 I-5.987 J-.705 E.46071
G1 X110.522 Y110.839 E.61338
G3 X114.656 Y110.119 I3.004 J5.023 E.16311
M204 P4000
M204 T4000
G1 X114.656 Y110.119 F18000
G1 X120.264 Y120.628
M204 P500
G1 F2400
G2 X120.178 Y117.872 I-19.916 J-.757 E.10488
G2 X119.693 Y116.392 I-6.278 J1.239 E.05934
G1 X119.693 Y121.648 E.19976
G1 X119.37 Y122.316 E.0282
G2 X119.241 Y122.974 I1.128 J.562 E.02579
G1 X119.121 Y123.354 E.01515
G1 X119.121 Y115.382 E.30299
G3 X118.971 Y114.765 I.764 J-.513 E.02464
G1 X118.55 Y113.559 E.04855
G1 X118.55 Y124.688 E.42297
G3 X117.979 Y125.487 I-2.662 J-1.301 E.0375
G1 X117.979 Y112.607 E.48952
G1 X117.407 Y111.978 E.03231
G1 X117.407 Y126.08 E.53597
G1 X116.836 Y126.519 E.02737
G1 X116.836 Y111.506 E.57059
G1 X116.265 Y111.106 E.0265
G1 X116.265 Y126.843 E.59811
G1 X115.693 Y127.12 E.02415
G1 X115.693 Y110.856 E.61813
G1 X115.122 Y110.634 E.02328
G1 X115.122 Y127.278 E.63258
G1 X114.551 Y127.424 E.0224
G1 X114.551 Y110.517 E.64257
G1 X113.979 Y110.428 E.022
G1 X113.979 Y127.456 E.64717
G1 X113.408 Y127.482 E.02172
G1 X113.408 Y110.432 E.64801
G1 X112.957 Y110.435 E.01714
G1 X112.837 Y110.462 E.00467
G1 X112.837 Y127.398 E.64368
G1 X112.265 Y127.308 E.02201
G1 X112.265 Y110.587 E.6355
G1 X111.694 Y110.745 E.02252
G1 X111.694 Y127.097 E.62148
G1 X111.122 Y126.869 E.0234
G1 X111.122 Y110.778 E.61156
M204 P4000
G1 E-.7 F2100
G1 X111.122 Y110.778 F18000
G1 X104.043 Y85.221 Z.663
G1 X102.995 Y81.436 Z.723
G1 X102.295 Y78.911 Z.753
G1 Z.2 F720
G1 E.7 F1500
M204 P500
G1 F2400
G1 X102.939 Y79.061 E.02513
G1 X104.123 Y79.748 E.05203
G1 X105.054 Y80.754 E.05209
G2 X105.438 Y81.155 I.601 J-.191 E.02185
G3 X106.897 Y93.22 I-.831 J6.221 E.62865
G3 X103.601 Y95.303 I-3.967 J-2.626 E.15269
G3 X102.393 Y95.347 I-.741 J-3.745 E.04614
G1 X101.811 Y95.498 E.02285
G3 X101.479 Y95.343 I-.044 J-.339 E.0147
G3 X100.49 Y94.605 I1.497 J-3.038 E.04716
G3 X100.279 Y93.915 I1.025 J-.691 E.02783
G1 X100.279 Y81.502 E.47177
G2 X99.703 Y80.642 I-.898 J-.021 E.04192
G1 X97.602 Y80.642 E.07985
G1 X97.54 Y80.465 E.00713
G1 X98.95 Y79.347 E.06839
G1 X100.231 Y78.849 E.05224
G1 X101.599 Y78.751 E.05213
G1 X102.228 Y78.896 E.02453
M204 P4000
G1 X102.228 Y78.896 F18000
G1 X109.98 Y90.166
M204 P500
G1 F2400
G1 X109.98 Y85.018 E.19566
G1 X109.408 Y84.004 E.04425
G1 X109.408 Y90.737 E.2559
G1 X108.837 Y91.452 E.03478
G1 X108.837 Y83.305 E.30964
G1 X108.266 Y82.805 E.02885
G1 X108.266 Y91.943 E.3473
G3 X107.694 Y92.355 I-1.596 J-1.611 E.0269
G1 X107.694 Y82.388 E.37881
G1 X107.123 Y82.077 E.02471
G1 X107.123 Y92.669 E.40256
G1 X106.918 Y92.782 E.0089
M73 P1 R35
G2 X106.552 Y92.995 I.019 J.454 E.01674
G1 X106.552 Y81.844 E.42381
G1 X105.98 Y81.665 E.02278
G1 X105.98 Y93.692 E.4571
G1 X105.409 Y94.147 E.02775
G1 X105.409 Y81.566 E.47816
G3 X104.843 Y81.265 I.363 J-1.366 E.02458
G1 X104.838 Y94.477 E.50214
G1 X104.266 Y94.73 E.02377
G1 X104.266 Y80.509 E.54049
G2 X103.695 Y79.975 I-1.633 J1.176 E.0299
G1 X103.695 Y94.867 E.56599
G1 X103.124 Y94.951 E.02194
G1 X103.124 Y79.644 E.58176
G2 X102.552 Y79.393 I-.808 J1.065 E.02396
G1 X102.552 Y94.945 E.59107
G2 X101.981 Y95.029 I-.116 J1.196 E.02215
M73 Q1 S41
G1 X101.981 Y79.261 E.59928
G2 X101.41 Y79.177 I-.487 J1.329 E.02209
G1 X101.41 Y94.808 E.59408
G3 X100.838 Y94.381 I.89 J-1.789 E.02728
M73 P1 R34
G1 X100.838 Y79.218 E.57629
G1 X100.267 Y79.276 E.02181
G1 X100.267 Y80.497 E.04641
G2 X99.695 Y80.231 I-.637 J.621 E.02451
G1 X99.695 Y79.499 E.02782
G1 X99.124 Y79.734 E.02347
G1 X99.124 Y80.231 E.01889
G1 X98.553 Y80.231 E.0217
G1 X98.553 Y79.924 E.01167
M204 P4000
G1 E-.7 F2100
G1 X98.553 Y79.924 F18000
G1 X83.081 Y79.331 Z.47
G1 Z.2 F720
G1 E.7 F1500
M204 P500
G1 F2400
G1 X83.761 Y79.529 E.02692
G1 X85.438 Y80.546 E.07454
G1 X85.411 Y80.642 E.00379
G1 X83.69 Y80.642 E.06541
G2 X83.114 Y81.502 I.322 J.839 E.04193
G1 X83.114 Y93.915 E.47177
G3 X82.478 Y94.981 I-1.201 J.005 E.04958
G2 X80.723 Y96.439 I3.895 J6.472 E.08705
G1 X79.833 Y96.087 E.03638
G1 X78.762 Y95.23 E.05213
G2 X77.596 Y94.059 I-2.274 J1.099 E.06398
G3 X76.152 Y92.272 I4.117 J-4.803 E.08781
G3 X78.848 Y80.361 I2.814 J-5.624 E.63546
G3 X83.015 Y79.315 I3.051 J3.333 E.17016
M204 P4000
G1 X83.015 Y79.315 F18000
G1 X83.698 Y80.437
M204 P500
G1 F2400
G1 X83.698 Y79.972 E.01767
G1 X83.126 Y79.772 E.02303
G1 X83.126 Y80.497 E.02755
G2 X82.703 Y81.498 I1.018 J1.02 E.04235
G1 X82.703 Y93.9 E.47135
G3 X82.555 Y94.381 I-.808 J.015 E.01945
G1 X82.555 Y79.633 E.56052
G2 X81.984 Y79.595 I-.374 J1.297 E.02192
G1 X81.984 Y94.808 E.57819
G1 X81.412 Y95.23 E.02702
G1 X81.412 Y79.619 E.59332
G2 X80.841 Y79.735 I.02 J1.551 E.02228
G1 X80.841 Y95.739 E.60825
G1 X80.623 Y95.957 E.01172
G1 X80.27 Y95.817 E.01443
G1 X80.27 Y79.935 E.60362
G1 X79.698 Y80.238 E.0246
G1 X79.698 Y95.452 E.57823
G1 X79.127 Y94.995 E.0278
G1 X79.127 Y80.664 E.54467
G3 X78.556 Y80.807 I-.472 J-.674 E.02288
G1 X78.556 Y94.195 E.50883
G1 X77.984 Y93.819 E.02602
G1 X77.984 Y80.87 E.49214
G1 X77.413 Y81.001 E.02227
G1 X77.413 Y93.29 E.46706
G3 X76.842 Y92.599 I1.623 J-1.923 E.03425
G1 X76.842 Y81.181 E.43396
G1 X76.27 Y81.449 E.02401
G1 X76.27 Y91.868 E.39599
G1 X75.699 Y91.553 E.02478
G1 X75.699 Y81.763 E.37208
G1 X75.127 Y82.224 E.02792
G1 X75.127 Y91.093 E.33708
G3 X74.556 Y90.535 I1.507 J-2.113 E.03046
G1 X74.556 Y82.786 E.29451
G1 X73.985 Y83.534 E.03577
G1 X73.985 Y89.792 E.23784
G3 X73.413 Y88.566 I4.741 J-2.956 E.05154
G1 X73.413 Y84.174 E.16692
M204 P4000
G1 E-.7 F2100
G1 X73.413 Y84.174 F18000
G1 X69.991 Y109.856 Z.652
G1 Z.2 F720
G1 E.7 F1500
M204 P500
G1 F2400
G3 X72.872 Y110.681 I-.375 J6.754 E.11485
G1 X72.872 Y127.006 E.62045
G3 X64.918 Y121.692 I-2.307 J-5.157 E.43356
G3 X68.097 Y109.967 I4.643 J-5.034 E.56777
G3 X69.923 Y109.853 I1.333 J6.632 E.06975
M204 P4000
G1 X69.923 Y109.853 F18000
G1 X72.271 Y127.024
M204 P500
G1 F2400
G1 X72.271 Y110.861 E.6143
G1 X71.699 Y110.61 E.02374
G1 X71.699 Y126.96 E.6214
G1 X71.128 Y127.053 E.02199
G1 X71.128 Y110.452 E.63094
G1 X70.557 Y110.315 E.02232
G1 X70.557 Y127.079 E.63714
G1 X69.985 Y127.047 E.02177
G1 X69.985 Y110.268 E.63771
G1 X69.414 Y110.235 E.02174
G1 X69.414 Y126.946 E.63512
G1 X68.843 Y126.787 E.02253
G1 X68.843 Y110.29 E.62699
G1 X68.271 Y110.36 E.0219
G1 X68.271 Y126.538 E.61487
G1 X67.7 Y126.235 E.02457
G1 X67.7 Y110.522 E.59719
G1 X67.129 Y110.7 E.02273
G1 X67.129 Y125.776 E.57298
G3 X66.557 Y125.203 I1.367 J-1.934 E.03092
M73 P2 R34
G1 X66.557 Y110.988 E.54026
G1 X65.986 Y111.303 E.02478
G1 X65.986 Y124.393 E.4975
G3 X65.415 Y122.774 I4.258 J-2.414 E.06559
G1 X65.415 Y111.749 E.41902
G2 X64.843 Y112.296 I1.544 J2.187 E.03019
G1 X64.843 Y120.991 E.33047
G1 X64.272 Y120.299 E.0341
G1 X64.272 Y112.985 E.27798
G1 X63.7 Y113.984 E.04375
G1 X63.7 Y119.757 E.21941
M204 P4000
G1 E-.7 F2100
G1 X63.7 Y119.757 F18000
G1 X81.808 Y100.382 Z.663
G1 X84.489 Y97.513 Z.723
G1 X87.171 Y94.643 Z.766
G1 X92.534 Y88.905 Z.8
G1 X98.757 Y82.246
G1 Z.2 F720
G1 E.7 F1500
M204 P500
;TYPE:Perimeter
;WIDTH:0.499999
G1 F2400
G1 X98.762 Y93.944 E.4446
G1 X98.861 Y94.642 E.02679
G1 X98.923 Y94.839 E.00785
G1 X99.19 Y95.383 E.02303
G1 X99.308 Y95.554 E.0079
G1 X99.852 Y96.097 E.02921
G1 X100.558 Y96.551 E.0319
G1 X101.096 Y97.01 E.02688
G1 X107.757 Y103.671 E.35802
G1 X108.205 Y104.196 E.02623
G1 X108.547 Y104.754 E.02487
G1 X108.798 Y105.359 E.02489
G1 X108.95 Y105.995 E.02485
G1 X109.005 Y106.868 E.03325
G1 X109.005 Y131.816 E.94818
G1 X108.957 Y132.359 E.02072
G3 X108.323 Y133.719 I-3.064 J-.601 E.05759
G3 X107.093 Y134.58 I-2.354 J-2.053 E.05763
G1 X106.605 Y134.711 E.0192
G1 X106.062 Y134.758 E.02071
G1 X77.447 Y134.758 E1.08755
G1 X76.838 Y134.72 E.02319
G1 X76.185 Y134.526 E.02589
G1 X75.587 Y134.201 E.02587
G1 X75.093 Y133.733 E.02586
G1 X74.708 Y133.172 E.02586
G1 X74.48 Y132.53 E.02589
G1 X74.389 Y131.82 E.02721
G1 X74.389 Y106.683 E.95536
G1 X74.443 Y105.995 E.02623
G1 X74.596 Y105.359 E.02486
G1 X74.846 Y104.754 E.02488
G1 X75.188 Y104.196 E.02487
G1 X75.636 Y103.671 E.02623
G1 X82.298 Y97.01 E.35805
G1 X82.835 Y96.551 E.02685
G2 X83.667 Y95.993 I-9.382 J-14.873 E.03808
G1 X84.085 Y95.554 E.02304
G1 X84.203 Y95.383 E.0079
G1 X84.47 Y94.839 E.02303
G1 X84.532 Y94.642 E.00785
G1 X84.631 Y93.947 E.02668
G1 X84.631 Y82.159 E.44802
G1 X98.757 Y82.159 E.53688
G1 X98.757 Y82.186 E.00103
M204 P4000
G1 X98.757 Y82.186 F18000
G1 X99.214 Y81.731
M204 P500
;TYPE:External perimeter
G1 F2400
G1 X99.219 Y93.944 E.46417
G1 X99.333 Y94.638 E.02673
M73 Q2 S41
G1 X99.64 Y95.239 E.02565
G1 X100.099 Y95.712 E.02505
G1 X100.831 Y96.183 E.03308
G1 X101.406 Y96.674 E.02874
G1 X108.093 Y103.361 E.35942
G1 X108.576 Y103.927 E.02828
G1 X108.956 Y104.546 E.02761
G1 X109.234 Y105.217 E.0276
G1 X109.403 Y105.923 E.02759
G1 X109.462 Y106.868 E.03599
G1 X109.462 Y131.835 E.9489
G1 X109.409 Y132.438 E.02301
G1 X109.257 Y133.004 E.02227
G1 X109.01 Y133.534 E.02222
G1 X108.674 Y134.014 E.02227
G1 X108.26 Y134.428 E.02225
G1 X107.781 Y134.763 E.02222
G1 X107.25 Y135.011 E.02227
G1 X106.685 Y135.162 E.02223
G1 X106.082 Y135.215 E.02301
G1 X77.309 Y135.215 E1.09355
G3 X75.767 Y134.848 I.054 J-3.647 E.06073
G3 X74.299 Y133.38 I1.625 J-3.093 E.08011
G3 X73.932 Y131.837 I3.28 J-1.596 E.06076
G1 X73.932 Y106.665 E.95669
G1 X73.99 Y105.923 E.02829
G1 X74.16 Y105.217 E.0276
G1 X74.437 Y104.546 E.02759
G1 X74.817 Y103.927 E.02761
G1 X75.3 Y103.361 E.02828
G1 X81.987 Y96.674 E.35942
G1 X82.562 Y96.183 E.02874
G1 X83.336 Y95.678 E.03512
G1 X83.793 Y95.182 E.02563
M73 Q2 S40
G1 X84.081 Y94.572 E.02564
G1 X84.174 Y93.947 E.02402
G1 X84.174 Y81.702 E.46539
G1 X99.182 Y81.702 E.5704
M204 P4000
G1 X99.212 Y82.101 F18000
G1 X98.574 Y83.272
M204 P500
;TYPE:Solid infill
;WIDTH:0.502327
G1 F2400
G1 X97.851 Y82.548 E.03909
G1 X97.201 Y82.548 E.02483
G1 X98.369 Y83.716 E.0631
G1 X98.369 Y84.366 E.02483
G1 X96.551 Y82.548 E.09821
G1 X95.902 Y82.548 E.02479
G1 X98.37 Y85.016 E.13333
G1 X98.37 Y85.666 E.02483
G1 X95.252 Y82.548 E.16844
G1 X94.602 Y82.548 E.02483
G1 X98.37 Y86.316 E.20356
G1 X98.37 Y86.966 E.02483
G1 X93.953 Y82.548 E.23865
G1 X93.303 Y82.548 E.02483
G1 X98.371 Y87.616 E.27379
G1 X98.371 Y88.266 E.02483
G1 X92.653 Y82.548 E.3089
G1 X92.004 Y82.548 E.02479
G1 X98.371 Y88.915 E.34396
G1 X98.372 Y89.566 E.02487
G1 X91.354 Y82.548 E.37913
G1 X90.704 Y82.548 E.02483
G1 X98.372 Y90.216 E.41425
G1 X98.373 Y90.866 E.02483
G1 X90.054 Y82.548 E.44939
G1 X89.405 Y82.548 E.02479
G1 X98.373 Y91.517 E.4845
G1 X98.374 Y92.167 E.02483
G1 X88.755 Y82.548 E.51964
G1 X88.105 Y82.548 E.02483
G1 X98.375 Y92.817 E.55479
G1 X98.375 Y93.468 E.02487
G1 X87.456 Y82.548 E.5899
G1 X86.806 Y82.548 E.02483
G1 X98.392 Y94.134 E.62591
G2 X98.516 Y94.866 I7.261 J-.851 E.02837
G1 X98.543 Y94.935 E.00283
G1 X86.156 Y82.548 E.66918
G1 X85.507 Y82.548 E.02479
G1 X108.419 Y105.461 E1.2378
G1 X108.565 Y106.056 E.0234
G1 X108.583 Y106.274 E.00836
G1 X85.02 Y82.711 E1.27294
G1 X85.02 Y83.361 E.02483
G1 X108.616 Y106.957 E1.27472
G1 X108.616 Y107.606 E.02479
G1 X85.02 Y84.01 E1.27472
G1 X85.02 Y84.66 E.02483
G1 X108.616 Y108.256 E1.27472
G1 X108.616 Y108.906 E.02483
M73 P3 R34
G1 X85.02 Y85.31 E1.27472
G1 X85.02 Y85.96 E.02483
G1 X108.616 Y109.556 E1.27472
G1 X108.616 Y110.205 E.02479
G1 X85.02 Y86.609 E1.27472
G1 X85.02 Y87.259 E.02483
G1 X108.616 Y110.855 E1.27472
G1 X108.616 Y111.505 E.02483
G1 X85.02 Y87.909 E1.27472
G1 X85.02 Y88.558 E.02479
G1 X108.616 Y112.154 E1.27472
G1 X108.616 Y112.804 E.02483
G1 X85.02 Y89.208 E1.27472
G1 X85.02 Y89.858 E.02483
G1 X108.616 Y113.454 E1.27472
G1 X108.616 Y114.103 E.02479
G1 X85.02 Y90.507 E1.27472
G1 X85.02 Y91.157 E.02483
G1 X108.616 Y114.753 E1.27472
G1 X108.616 Y115.403 E.02483
G1 X85.02 Y91.807 E1.27472
G1 X85.02 Y92.457 E.02483
G1 X108.616 Y116.053 E1.27472
G1 X108.616 Y116.702 E.02479
M73 Q3 S40
G1 X85.02 Y93.106 E1.27472
G1 X85.02 Y93.756 E.02483
G1 X108.616 Y117.352 E1.27472
G1 X108.616 Y118.002 E.02483
G1 X84.97 Y94.355 E1.27745
G3 X84.863 Y94.898 I-3.06 J-.319 E.02117
G1 X108.616 Y118.651 E1.2832
G1 X108.616 Y119.301 E.02483
G1 X84.656 Y95.341 E1.29438
G3 X84.458 Y95.712 I-2.714 J-1.208 E.01608
G1 X84.419 Y95.754 E.00219
G1 X108.616 Y119.951 E1.30719
G1 X108.616 Y120.6 E.02479
G1 X84.106 Y96.09 E1.3241
G3 X83.774 Y96.408 I-1.544 J-1.276 E.0176
G1 X108.616 Y121.25 E1.34203
G1 X108.616 Y121.9 E.02483
G1 X83.379 Y96.663 E1.36337
G2 X82.993 Y96.927 I1.486 J2.584 E.01788
G1 X108.616 Y122.55 E1.38422
G1 X108.616 Y123.199 E.02479
G1 X82.643 Y97.226 E1.40313
G1 X82.312 Y97.545 E.01756
M73 P4 R34
G1 X108.616 Y123.849 E1.42101
G1 X108.616 Y124.499 E.02483
M73 P4 R33
G1 X81.987 Y97.87 E1.43857
G1 X81.662 Y98.195 E.01756
G1 X108.616 Y125.148 E1.4561
G1 X108.616 Y125.798 E.02483
G1 X81.337 Y98.519 E1.47369
G1 X81.013 Y98.844 E.01753
G1 X108.616 Y126.448 E1.49122
G1 X108.616 Y127.097 E.02479
